src/pos-icons/alphabet-greek.svg

<svg height="24" viewBox="0 0 24 24" width="24" xmlns="http://www.w3.org/2000/svg"><path d="m16 6c-1.64 0-3 1.36-3 3v12h2v-12c0-.57.43-1 1-1h1c.57 0 1 .43 1 1v1c0 .57-.43 1-1 1h-1v2h1c.57 0 1 .43 1 1v1c0 .57-.43 1-1 1h-1v2h1c1.65 0 3-1.35 3-3v-1c0-.82-.41-1.54-1-2 .59-.46 1-1.18 1-2v-1c0-1.64-1.35-3-3-3m-10 3c-1.64 0-3 1.36-3 3v3c0 1.65 1.36 3 3 3h.7c.5 0 .95-.19 1.3-.5v.5h2v-9h-2v.5c-.35-.31-.8-.5-1.3-.5m-.7 2h1c.57 0 1 .43 1 1v3c0 .57-.43 1-1 1h-1c-.57 0-1-.43-1-1v-3c0-.57.43-1 1-1z"/></svg>

<?xml version="1.0" encoding="UTF-8"?><!DOCTYPE svg PUBLIC "-//W3C//DTD SVG 1.1//EN" "http://www.w3.org/Graphics/SVG/1.1/DTD/svg11.dtd"><svg xmlns="http://www.w3.org/2000/svg" xmlns:xlink="http://www.w3.org/1999/xlink" version="1.1" id="mdi-alphabet-greek" width="24" height="24" viewBox="0 0 24 24"><path d="M16 6C14.36 6 13 7.36 13 9V21H15V9C15 8.43 15.43 8 16 8H17C17.57 8 18 8.43 18 9V10C18 10.57 17.57 11 17 11H16V13H17C17.57 13 18 13.43 18 14V15C18 15.57 17.57 16 17 16H16V18H17C18.65 18 20 16.65 20 15V14C20 13.18 19.59 12.46 19 12C19.59 11.54 20 10.82 20 10V9C20 7.36 18.65 6 17 6M7 9C5.36 9 4 10.36 4 12V15C4 16.65 5.36 18 7 18H7.7C8.2 18 8.65 17.81 9 17.5V18H11V9H9V9.5C8.65 9.19 8.2 9 7.7 9M7 11H8C8.57 11 9 11.43 9 12V15C9 15.57 8.57 16 8 16H7C6.43 16 6 15.57 6 15V12C6 11.43 6.43 11 7 11Z" /></svg>
